dist/img/icons/security/star.svg

<svg width="26" height="26" viewBox="0 0 26 26" fill="none" xmlns="http://www.w3.org/2000/svg">
<g clip-path="url(#clip0)">
<path d="M25.4357 11.8348C25.9475 11.336 26.1282 10.604 25.9074 9.92355C25.6861 9.24309 25.1098 8.75735 24.4018 8.65426L18.1064 7.73953C17.8382 7.70048 17.6066 7.53232 17.4868 7.28919L14.6723 1.5847C14.3563 0.94381 13.7149 0.545532 13.0001 0.545532C12.2858 0.545532 11.6444 0.94381 11.3283 1.5847L8.51333 7.28919C8.39359 7.53232 8.16139 7.70048 7.89327 7.73953L1.59787 8.65478C0.890343 8.75735 0.314012 9.24309 0.0927463 9.92355C-0.127999 10.604 0.0526582 11.336 0.564432 11.8348L5.11938 16.2746C5.31357 16.4642 5.4026 16.737 5.35678 17.0035L4.28169 23.2734C4.16091 23.9778 4.44465 24.676 5.02306 25.0966C5.60096 25.5178 6.35326 25.5725 6.98686 25.2388L12.6169 22.2785C12.8569 22.1525 13.1432 22.1525 13.3833 22.2785L19.0138 25.2388C19.2887 25.3835 19.5865 25.4548 19.8827 25.4548C20.2675 25.4548 20.6507 25.3346 20.9776 25.0966C21.556 24.676 21.8398 23.9778 21.719 23.2734L20.6434 17.004C20.5976 16.737 20.6866 16.4647 20.8808 16.2752L25.4357 11.8348ZM19.6177 17.18L20.6928 23.4494C20.747 23.7649 20.6246 24.0663 20.3654 24.2548C20.1056 24.4427 19.7823 24.4656 19.4985 24.3178L13.868 21.357C13.5967 21.2149 13.2979 21.143 13.0001 21.143C12.7023 21.143 12.404 21.2149 12.1322 21.3575L6.50268 24.3178C6.2179 24.4656 5.89459 24.4427 5.63532 24.2548C5.37605 24.0663 5.25422 23.7654 5.30784 23.4494L6.38293 17.18C6.48654 16.5751 6.2861 15.9576 5.84669 15.5296L1.29122 11.0892C1.06163 10.8654 0.983535 10.5499 1.08297 10.2453C1.18189 9.94021 1.43023 9.73092 1.74729 9.68458L8.04216 8.76984C8.64973 8.68186 9.17504 8.30076 9.44629 7.74994L12.2613 2.04545C12.4029 1.75807 12.6794 1.58678 12.9996 1.58678C13.3203 1.58678 13.5962 1.75807 13.7383 2.04545L16.5533 7.74994C16.8246 8.30076 17.3494 8.68186 17.9569 8.76984L24.2523 9.68458C24.5694 9.73092 24.8177 9.94021 24.9167 10.2453C25.0156 10.5499 24.938 10.8654 24.7084 11.0892L20.1535 15.5291C19.7141 15.9576 19.5136 16.5745 19.6177 17.18Z" fill="white"/>
</g>
<defs>
<clipPath id="clip0">
<rect width="26" height="26" fill="white" transform="translate(0 0.000488281)"/>
</clipPath>
</defs>
</svg>

<svg width="26" height="26" fill="none" xmlns="http://www.w3.org/2000/svg"><g clip-path="url(#clip0)"><path d="M25.436 11.835a1.852 1.852 0 00.471-1.911 1.853 1.853 0 00-1.505-1.27l-6.296-.914a.822.822 0 01-.62-.45l-2.814-5.705A1.853 1.853 0 0013 .545c-.714 0-1.356.399-1.672 1.04L8.513 7.289a.823.823 0 01-.62.45l-6.295.916A1.852 1.852 0 00.093 9.924c-.221.68-.04 1.412.471 1.91l4.555 4.44c.195.19.284.463.238.73l-1.075 6.27a1.853 1.853 0 00.741 1.823 1.85 1.85 0 001.964.142l5.63-2.96a.824.824 0 01.766 0l5.63 2.96a1.857 1.857 0 001.964-.142c.579-.421.863-1.12.742-1.824l-1.076-6.269a.824.824 0 01.238-.729l4.555-4.44zm-5.818 5.345l1.075 6.27a.808.808 0 01-.328.805.811.811 0 01-.866.063l-5.631-2.961a1.873 1.873 0 00-1.736 0l-5.63 2.96a.812.812 0 01-.867-.062.81.81 0 01-.327-.806l1.075-6.269a1.865 1.865 0 00-.536-1.65L1.29 11.09a.807.807 0 01-.208-.845.808.808 0 01.664-.56l6.295-.915a1.862 1.862 0 001.404-1.02l2.815-5.705a.808.808 0 01.74-.458c.32 0 .596.171.738.458l2.815 5.705c.272.55.796.932 1.404 1.02l6.295.915a.808.808 0 01.665.56.808.808 0 01-.209.844l-4.554 4.44a1.864 1.864 0 00-.536 1.651z" fill="#fff"/></g><defs><clipPath id="clip0"><path fill="#fff" d="M0 0h26v26H0z"/></clipPath></defs></svg>
